X:158
T:John O' Badenyond
M:C
K:D
d|\
B>AFA "tr"B>AF>c| d>ed>B A3d|\
Be f>ed>f| Be f3a|
b>fa>e f>de>B| d>AB>F d3e|\
f>de>B d>Ad>F| E<EF>A B3::
a|\
"tr"b>af>a "tr"b>af>b| a>fe>f a3d'|\
b>ge>g "tr"b>af>d| B/B/B d>e f3a|
b>fa>e f>de>B| d>Ad>F d3e|\
"tr"f>de>B d>Ad>F| E<EF>A B3:|
